!!!COM:	Bach, Johann Sebastian
!!!CDT:	1685/02/21/-1750/07/28/
!!!OTL@@DE:	Liebester Gott, wann werd ich sterben
!!!SCT:	BWV 8/6
!!!PC#:	43
!!!AGN:	chorale
**kern	**kern	**kern	**kern
*ICvox	*ICvox	*ICvox	*ICvox
*Ibass	*Itenor	*Ialto	*Isoprn
*I"Bass	*I"Tenor	*I"Alto	*I"Soprano
*>[A,A,B]	*>[A,A,B]	*>[A,A,B]	*>[A,A,B]
*>norep[A,B]	*>norep[A,B]	*>norep[A,B]	*>norep[A,B]
*>A	*>A	*>A	*>A
*clefF4	*clefGv2	*clefG2	*clefG2
*k[f#c#g#d#]	*k[f#c#g#d#]	*k[f#c#g#d#]	*k[f#c#g#d#]
*E:	*E:	*E:	*E:
*M4/4	*M4/4	*M4/4	*M4/4
*met(c)	*met(c)	*met(c)	*met(c)
*MM100	*MM100	*MM100	*MM100
=1-	=1-	=1-	=1-
2r	2r	2r	4r
.	.	.	8bL
.	.	.	8bJ
4r	4r	4r	4ee
8EL	8eL	8g#L	4b
8EJ	8eJ	8g#J	.
=2	=2	=2	=2
4A	4e	4a	4cc#
4E	4e	8aL	4b
.	.	8g#J	.
4F#	4c#	8g#L	4.a
.	.	16f#L	.
.	.	16eJJ	.
4D#	4B	8f#L	.
.	.	8f#J	16bLL
.	.	.	16aJJ
=3	=3	=3	=3
4E	4B	4e	4g#
4BB;	4B;	4d#;	4f#;
2r	2r	2r	4r
.	.	.	8bL
.	.	.	8aJ
=4	=4	=4	=4
4r	4r	4r	4g#
[4E	8eL	4g#	8cc#L
.	8d#J	.	8bJ
8EL]	4c#	4f#	8a#L
8D#	.	.	8f#J
8C#	4d#	4f#	[4b
8BBJ	.	.	.
=5	=5	=5	=5
8F#L	4c#	4f#	4b]
8EJ	.	.	.
4F#	4c#	4f#	4a#
2BB;	2d#;	2f#;	2b;
=6:|!	=6:|!	=6:|!	=6:|!
*>B	*>B	*>B	*>B
2r	2r	4r	4r
.	.	8d#L	8f#L
.	.	8eJ	8g#J
4r	4r	4f#	4anX
8C#L	8eL	8eL	4g#
8D#J	8d#J	8f#J	.
=7	=7	=7	=7
8EL	8c#L	8g#L	4.cc#
8D#	8a	8f#J	.
8E	8g#	8g#L	.
8F#J	8f#J	8aJ	8dd#
4GG#;	2d#;	2g#;	2b#;
8G#L	.	.	.
8F#J	.	.	.
=8	=8	=8	=8
2.E	4r	4r	4r
.	8eL	4g#	8cc#L
.	8d#J	.	8bJ
.	4c#	4f#	4a#
8D#L	4d#	4f#	4b
8EJ	.	.	.
=9	=9	=9	=9
4F#	8c#L	4f#	4b
.	8BJ	.	.
4FF#	4c#	4f#	4a#
4BB;	4d#;	4f#;	4b;
4r	4r	4r	8f#L
.	.	.	8f#J
=10	=10	=10	=10
4r	4r	4r	4.b
8BBL	8d#L	2f#	.
8BBJ	8d#J	.	8anX
8EL	4B	.	4g#
8D#	.	.	.
8C#	4c#	4e	4cc#
8BBJ	.	.	.
=11	=11	=11	=11
8AAL	4d#	8f#L	4b#
8GG#J	.	8g#J	.
4FF##	4e	4a#	2cc#
2GG#	2d#	2g#	.
.	.	.	4b#
=12	=12	=12	=12
2C#	4e	4g#	2cc#
.	8eL	8g#L	.
.	8B#J	8d#J	.
4r	4.c#	[2e	4r
8c#L	.	.	8eeL
8G#J	8d	.	8bnXJ
=13	=13	=13	=13
8AL	2c#	4e]	4cc#
8BJ	.	.	.
4c#	.	4e	8g#L
.	.	.	8aJ
4G#	[2B	8d#XL	4.b
.	.	8eJ	.
4D#	.	[4f#	.
.	.	.	8a
=14	=14	=14	=14
4E	4B]	8f#L]	4g#
.	.	8eJ	.
2AA	4c	8d#L	8f#L
.	.	8eJ	8eJ
.	4F#	4B	4d#
4AA#	4G	4c#X	[4e
=15	=15	=15	=15
2BB	8F#L	2B	4e]
.	8EJ	.	.
.	4F#	.	4d#
2E;	2G#X;	2B;	2e;
==	==	==	==
*-	*-	*-	*-
!!!hum2abc: -Q ''
!!!title: @{PC#}. @{OTL@@DE}
!!!YOR1: 371 vierstimmige Choralges&auml;nge von Johann Sebastian Bach, 
!!!YOR2: 4th ed. by Alfred D&ouml;rffel (Leipzig: Breitkopf und H&auml;rtel, 
!!!YOR2: c.1875). 178 pp. Plate "V.A.10".  reprint: J.S. Bach, 371 Four-Part 
!!!YOR4: Chorales (New York: Associated Music Publishers, Inc., c.1940).
!!!SMS: B&H, 4th ed, Alfred D&ouml;rffel, c.1875, plate V.A.10
!!!EED:  Craig Stuart Sapp
!!!EEV:  2009/05/22
